!!!!SEGMENT: pl-wnifc--1134-n_tymolski-fabian--pamieci-f-chopina-polones.krn
!!!cenid: 18xx:3875
!!!COM: Tymolski, Fabian
!!!COM-rismID: pe30006748
!!!CDT: 1828/01/14-1885
!!!CNT:
!!!OTL: Pamięci F. Chopina Polones
!!!PDT:
!!!AGN:
!!!SMS-siglum: PL-Wnifc
!!!SMS-shelfmark: 1134/n
!!!SMS-shelfwork: W
!!!SMS-variant:
!!!SMS-altvar:
!!!NIFC-rismSourceID: 1001132831
!!!NIFC-islandoraID: nifc:211790
!!!URL-pdf-islandora: https://repozytorium.nifc.pl/islandora/object/nifc%3A211790/datastream/PDF/view
!!!URL-scan: https://polish.musicsources.pl/pl/lokalizacje/galeria/druki-muzyczne/16803 @EN{Scan on Polish Music Herritage in Open Access Website} @PL{Skany w portalu Dziedzictwo Muzyki Polskiej w otwartym dostępie}
!!!ONB-nifc:
!!!AIN: 2 piano
!!!key: G
**kern	**kern	**dynam
*part2	*part1	*part1
*staff2	*staff1	*
*I"Piano	*I"Piano	*
*I'pf	*I'pf	*
*ICklav	*ICklav	*
*Ipiano	*Ipiano	*
*>[A,A1,A,A2,B]	*>[A,A1,A,A2,B]	*>[A,A1,A,A2,B]
*>A	*A	*>A
*clefF4	*clefG2	*
*k[f#]	*k[f#]	*
*G:	*G:	*
*M3/4	*M3/4	*
=1	=1	=1
8GG\ 8BB 8D 8G	8g\L 8b 8dd 8gg	fp
8r	(16G\L	.
.	16B\JJ)	.
2r	(16d\LL	.
.	16g\	.
.	16b\	.
.	16dd\JJ)	.
.	(16gg\LL	.
.	16bb\	.
.	16aa\	.
.	16gg\JJ)	.
=2	=2	=2
8D\ 8F# 8A 8c	8cc\L 8dd 8aa	.
8r	16c#X\L	.
.	16d\JJ	.
2r	(16f#\LL	.
.	16a\	.
.	16dd\	.
.	16ff#\JJ)	.
.	(16aa\LL	.
.	16cccn\	.
.	16bb\	.
.	16aa\JJ)	.
=3	=3	=3
!	!	!LO:DY:t=f.
8GGG/L 8GG	8gg'\L	f
.	8qaa/	.
8D\J 8G 8B	16gg\L	.
.	16ff#'\JJ	.
!	!	!
8GGG/L 8GG	8gg'\L	.
8D\J 8G 8B	8bb'\J	.
!	!	!
8GGG/L 8GG	(16eee\LL	.
.	16ddd\	.
8D\J 8G 8B	16ccc\	.
.	16bb\JJ)	.
!!LO:LB:g=original	!	!
!	!	!
=4	=4	=4
8D\ 8F# 8A 8c	8cc\ 8dd 8aa	.
8r	8r	.
4D\ 4F# 4A 4c	16cc'\LL 16dd 16aa	.
.	16dd'\	.
.	16cc#X'\	.
.	16dd'\JJ	.
4r	16ee'\LL	.
.	16ff#'\	.
.	16gg'\	.
.	16aa'\JJ	.
=5:|!|:	=5:|!|:	=5:|!|:
!	!	!LO:DY:t=p.
8GGG'/L 8GG	4.bb\	p
16D\L 16G 16B	.	.
16D'\JJ 16G 16B	.	.
8D\L 8G 8B	.	.
8D\ 8G 8B	8bb'\L	.
8D\ 8G 8B	8ccc'\	.
8D\J 8G 8B	8ccc#X'\J	.
=6	=6	=6
8GGG/ 8GG	(16eee\LL	.
.	16ddd\	.
8D\L 8G 8B	16bb\	.
.	16gg\JJ)	.
8D\ 8G 8B	4.dd\	.
8D\ 8G 8B	.	.
8D\ 8G 8B	.	.
8D\J 8G 8B	8bb\	.
=7	=7	=7
!	!	!
8DD/L 8D	4.aa'\	.
16D\L 16F# 16A 16c	.	.
16D\JJ 16F# 16A 16c	.	.
8D\L 8F# 8A 8c	.	.
8D\ 8F# 8A 8c	8ccc'\L	.
8D\ 8F# 8A 8c	8ee'\	.
8D\J 8F# 8A 8c	8ff#'\J	.
!!LO:LB:g=original	!	!
=8	=8	=8
.	(>8qaa/	.
8GGG/ 8GG	16gg\LL)	.
.	(16ff#\	.
8D\L 8G 8B	16gg\	.
.	16bb\JJ)	.
8D\ 8G 8B	8dd'\L	.
8D\ 8G 8B	(16cc#X\L	.
.	16dd\JJ)	.
8D\ 8G 8B	16ee'\LL	.
.	16ff#'\	.
8D\J 8G 8B	16gg'\	.
.	16aa'\JJ	.
=9	=9	=9
8GGG/ 8GG	4.bb\	.
16D\LL 16G 16B	.	.
16D\JJ 16G 16B	.	.
8D\L 8G 8B	.	.
8D\ 8G 8B	8bb'\L	.
8D\ 8G 8B	8ccc'\	.
8D\J 8G 8B	8ccc#X'\J	.
=10	=10	=10
8GGG/ 8GG	(16eee\LL	.
.	16ddd\	.
8D\L 8G 8B	16bb\	.
.	16gg\JJ)	.
8D\ 8G 8B	4.dd\	.
8D\ 8G 8B	.	.
8D\ 8G 8B	.	.
!	!	!LO:DY:t=f&colon;
8D\J 8G 8B	8bb\	f
=11	=11	=11
*>A1	*A1	*>A1
8BBB/ 8BB	4.b\ 4.dd#X 4.ff# 4.bb	.
16D#X\LL 16F# 16A 16B	.	.
16D#\JJ 16F# 16A 16B	.	.
8D#\L 8F# 8A 8B	.	.
8D#\ 8F# 8A 8B	(16aa#X\LL	.
.	16bb\JJ)	.
8D#\ 8F# 8A 8B	8.ccc\L	.
8D#\J 8F# 8A 8B	.	.
.	16bb\Jk	.
!!LO:LB:g=original	!	!
=12	=12	=12
!	!	!
8EE/ 8E	(16aa\LL	.
.	16gg\	.
16E\LL 16G 16B	16ff#\	.
16E\JJ 16G 16B	16gg\JJ)	.
8E\L 8G 8B	4.ee\	.
8E\ 8G 8B	.	.
8E\ 8G 8B	.	.
8E\J 8G 8B	8ff#\	.
=13	=13	=13
!	!	!
.	(>8qaa/	.
8EE/L 8E	8gg\L)	.
8E\J 8G 8B	16ff#\L	.
.	16ee\JJ	.
8CC/L 8C	8ee'\L 8eee	.
8E\J 8G 8c	8ee'\J 8eee	.
8FFF#/L 8FF#	8.ff#\L 8.fff#	.
8F#\J 8A#X 8e	.	.
.	16ee\Jk 16eee	.
=14	=14	=14
8BBB/ 8BB	16ddd#X\LL	.
.	16bb\	.
8E\L 8B 8d#X	16aa#X\	.
.	16bb\JJ	.
8E\ 8B 8d#	(16ccc\LL	.
.	16bb\	.
8E\ 8B 8d#	16aan\	.
.	16gg\JJ)	.
8E\ 8B 8d#	(16ff#\LL	.
.	16aa\	.
8E\J 8B 8d#	16gg\	.
.	16ff#\JJ)	.
=15	=15	=15
.	(>8qaa/	.
8EE/L 8E	8gg\L)	.
8G\J 8B 8e	16ff#'\L	.
.	16ee'\JJ	.
8CC/L 8C	8.ee\L 8.eee	.
8G\J 8c 8e	.	.
.	16ee\Jk 16eee	.
8FFF#/L 8FF#	8ff#\L 8fff#	.
8F#\J 8A#X 8e	8ee\J 8eee	.
=16	=16	=16
8.BBB/L 8.BB	8.dd#X\L 8.ddd#X	.
16BB\Jk 16D#X 16F# 16B	16b\Jk 16dd#X 16ff# 16bb	.
4BB\ 4D# 4F# 4B	4b\ 4dd# 4ff# 4bb	.
4r	4r	.
=17:|!|:	=17:|!|:	=17:|!|:
*>A2	*A2	*>A2
8CC/ 8C	(16gg#X\LL	.
.	16aa\JJ)	.
16C\LL 16E 16A	4fff#\	.
16C\JJ 16E 16A	.	.
8C\L 8E 8A	.	.
!	!LO:TUP:a:problem:klamra łukowa	!
8C\J 8E 8A	24eee\LL	.
.	24ddd\	.
.	24ccc\JJ	.
8DD/L 8D	(16bb\LL	.
.	16ddd\	.
8D\J 8F# 8A 8c	16ccc\	.
.	16aa\JJ)	.
=18	=18	=18
8D\L 8G 8B	(16gg\LL	.
.	16dd\	.
8D\J 8F# 8c	16bb\	.
.	16aa\JJ)	.
4D\	4cc\ 4ff# 4aa	.
!	!LO:TX:b:t=Fine	!
8G\	8b\ 8dd 8gg	.
8r	8r	.
!!LO:LB:g=original	!	!
=19!|:	=19!|:	=19!|:
*>B	*>B	*>B
*k[f#c#]	*k[f#c#]	*
!	!	!LO:DY:t=ff&colon;
8AAA/ 8AA	4.a\ 4.aa	ff
16E\LL 16G 16A 16c#	.	.
16E\JJ 16G 16A 16c#	.	.
8C#\L 8E 8A 8c#	.	.
8C#\ 8E 8A 8c#	8gg'\L 8ggg	.
8C#\ 8E 8A 8c#	8ff#'\ 8fff#	.
8C#\J 8E 8A 8c#	8ee'\J 8eee	.
=20	=20	=20
8DD/ 8D	8ee'\L 8eee	.
8D\L 8F# 8A 8d	8dd'\J 8ddd	.
8D\ 8F# 8A 8d	4.f#'\ 4.ff#	.
8D\ 8F# 8A 8d	.	.
8D\ 8F# 8A 8d	.	.
8D\J 8F# 8A 8d	8a'\ 8aa	.
=21	=21	=21
8GGG/ 8GG	8.ccc#'\L	.
8G\L 8B 8e	.	.
.	16bb'\Jk	.
8G\ 8B 8e	16aa'\LL	.
.	16gg'\	.
8G\J 8B 8e	16ff#'\	.
.	16ee'\JJ	.
8AAA/L 8AA	16dd#X'\LL	.
.	16ee'\	.
8A\J 8c# 8e 8g	16bb'\	.
.	16aa'\JJ	.
=22	=22	=22
8DD/ 8D	8.ee#X'\L	.
16A\LL 16d 16f#	.	.
16A\JJ 16d 16f#	16ff#'\Jk	.
8A\L 8d 8f#	4ff#'\	.
8A\ 8d 8f#	.	.
8A\ 8d 8f#	8ff#'\L	.
8A\J 8d 8f#	8gg'\J	.
!!LO:PB:g=original	!	!
=23	=23	=23
8AAA/ 8AA	4.a\ 4.aa	.
16A\LL 16c# 16e 16g	.	.
16A\JJ 16c# 16e 16g	.	.
8A\L 8c# 8e 8g	.	.
8A\ 8c# 8e 8g	8gg'\L 8ggg	.
8A\ 8c# 8e 8g	8ff#'\ 8fff#	.
8A\J 8c# 8e 8g	8ee'\J 8eee	.
=24	=24	=24
8DD/ 8D	8.ee'\L 8.eee	.
8A\L 8d 8f#	.	.
.	16dd'\Jk 16ddd	.
8A\ 8d 8f#	8.ee'\L 8.eee	.
8A\J 8d 8f#	.	.
.	16dd'\Jk 16ddd	.
8GGG/L 8GG	8cc#'\L 8ccc#	.
8G\J 8B 8e	8b'\J 8bb	.
=25	=25	=25
8AAA/L 8AA	8aa'\L	.
8A\J 8d 8f#	(16gg#X\L	.
.	16aa\JJ)	.
8A\L 8d 8f#	(16ccc#\LL	.
.	16bb\	.
8A\J 8d 8f#	16aa\	.
.	16gg#\JJ)	.
8AAA/L 8AA	(16ff#\LL	.
.	16aa\	.
8A\J 8c# 8e 8g	16gg#\	.
.	16ee\JJ)	.
=26	=26	=26
!	!LO:TX:b:t=Dal Segno al	!
8D\L	(16dd\LL	.
.	16a\)	.
8A\J 8d 8f#	(16ff#\	.
.	16ee\JJ)	.
8r	4g'\ 4cc# 4ee	.
8GG/ 8G	.	.
8D\ 8d	8f#'\ 8a 8dd	.
8r	8r	.
!!LO:LB:g=original	!	!
=27:|!|:	=27:|!|:	=27:|!|:
*k[]	*k[]	*
!	!LO:TX:a:t=TRIO	!
8CC\L 8C	4ee'\ 4gg	.
8G\ 8c 8e	.	.
8G\ 8c 8e	8ee'\L 8gg	.
8G\J 8c 8e	8gg'\ 8eee	.
8GGG/L 8GG	8ff'\ 8ddd	.
8G\J 8B 8d 8f	8gg'\J 8eee	.
=28	=28	=28
8CC/L 8C	8ff'\L 8ddd	.
8G\J 8c 8e	8ee'\J 8ccc	.
8G\L 8c 8e	4.ee'\ 4.gg	.
8G\ 8c 8e	.	.
8G\ 8c 8e	.	.
8G\J 8c 8e	8ee'\ 8ccc	.
=29	=29	=29
!LO:TX:a:t=P:problem:mixed beam	!	!
8FF/L 8F	4.ff'\ 4.ddd	.
8A\ 8d 8f	.	.
8A\ 8d 8f	.	.
8A\J 8d 8f	8cc'\ 8aa	.
8GGG/L 8GG	8dd'\L 8bb	.
8G\J 8B 8d 8f	8b'\J 8gg	.
=30	=30	=30
8CC/L 8C	8.ee'\L 8.gg	.
8G\ 8c 8e	.	.
.	16ee'\Jk 16ccc	.
8G\J 8c 8e	8ee'\L 8ccc	.
8r	8cc'\ 8ee	.
4r	8dd'\ 8ff	.
.	8dd#X'\J 8ff#X	.
=31	=31	=31
8CC/L 8C	4ee'\ 4gg	.
8G\J 8c 8e	.	.
8G\L 8c 8e	8ee'\L 8gg	.
8G\J 8c 8e	8gg'\J 8eee	.
8GGG/L 8GG	8ff'\L 8ddd	.
8G\J 8B 8d 8f	8gg'\J 8eee	.
!!LO:LB:g=original	!	!
=32	=32	=32
8CC/L 8C	8ff\L 8ddd	.
8G\J 8c 8e	8ee\J 8ccc	.
8G\L 8c 8e	4.ee\ 4.gg	.
8G\ 8c 8e	.	.
8G\ 8c 8e	.	.
8G\J 8c 8e	8ee\ 8ccc	.
=33	=33	=33
!LO:TX:a:t=P:problem:mixed beam	!	!
8FF/L 8F	4.ff'\ 4.ddd	.
8A\ 8d 8f	.	.
8A\ 8d 8f	.	.
8A\J 8d 8f	8cc'\ 8aa	.
8GGG/L 8GG	8dd'\L 8bb	.
8G\J 8B 8d 8f	8b'\J 8gg	.
=34	=34	=34
8C\ 8E 8G 8c	8ee'\ 8gg 8ccc	.
8r	8r	.
8r	8r	.
!LO:N:vis=2	!	!
4.r	8ee'\L 8eee	.
.	8ee'\ 8eee	.
.	8ee'\J 8eee	.
=35||	=35||	=35||
*k[f#c#g#d#]	*k[f#c#g#d#]	*
!	!	!LO:DY:t=ff&colon;
8EE/ 8E	8ee'\L 8eee	ff
16G#\LL 16B 16e	16dd#'\L 16ddd#	.
16G#\JJ 16B 16e	16cc#'\JJ 16ccc#	.
8G#\L 8B 8e	4.b'\ 4.bb	.
8G#\ 8B 8e	.	.
8G#\ 8B 8e	.	.
8G#\J 8B 8e	(16aa#X\LL	.
.	16bb\JJ)	.
!!LO:LB:g=original	!	!
=36	=36	=36
8EE/ 8E	8cc#'\L 8ccc#	.
16G#\LL 16B 16e	16b'\L 16bb	.
16G#\JJ 16B 16e	16a'\JJ 16aa	.
8G#\L 8B 8e	4.g#'\ 4.gg#	.
8G#\ 8B 8e	.	.
8G#\ 8B 8e	.	.
8G#\J 8B 8e	(16ff##X\LL	.
.	16gg#\JJ)	.
=37	=37	=37
!	!	!LO:DY:t=p.
8BBB/ 8BB	8bb'\L	p
16F#\LL 16A 16B 16d#	(16aa\L	.
16F#\JJ 16A 16B 16d#	16gg#\JJ)	.
8F#\L 8A 8B 8d#	8ff#'\L	.
8F#\ 8A 8B 8d#	8bb'\	.
8F#\ 8A 8B 8d#	8ff#'\	.
8F#\J 8A 8B 8d#	8bb'\J	.
=38	=38	=38
8EE/ 8E	8gg#'\L	.
.	8qaa/	.
16G#\LL 16B 16e	(16gg#\L	.
16G#\JJ 16B 16e	16ff#\JJ)	.
8G#\L 8B 8e	4ee\	.
8G#\ 8B 8e	.	.
8G#\ 8B 8e	16gg#'\LL	.
.	16aa'\	.
8G#\J 8B 8e	16aa#X'\	.
.	16bb'\JJ	.
=39	=39	=39
!	!	!LO:DY:t=ff.
8EE/ 8E	8ee'\L 8eee	ff
16G#\LL 16B 16e	(16dd#\L 16ddd#	.
16G#\JJ 16B 16e	16cc#\JJ) 16ccc#	.
8G#\L 8B 8e	4.b'\ 4.bb	.
8G#\ 8B 8e	.	.
8G#\ 8B 8e	.	.
8G#\J 8B 8e	16aa#X\LL	.
.	16bb\JJ	.
!!LO:LB:g=original	!	!
=40	=40	=40
8EE/ 8E	8cc#'\L 8ccc#	.
16G#\LL 16B 16e	(16b\L 16bb	.
16G#\JJ 16B 16e	16a\JJ) 16aa	.
8G#\L 8B 8e	4.g#\ 4.gg#	.
8G#\ 8B 8e	.	.
8G#\ 8B 8e	.	.
8G#\J 8B 8e	(16ff##X\LL	.
.	16gg#\JJ)	.
=41	=41	=41
8BBB/ 8BB	8bb'\L	.
16F#\LL 16A 16B 16d#	(16aa\L	.
16F#\JJ 16A 16B 16d#	16gg#\JJ)	.
8F#\L 8A 8B 8d#	8ff#'\L	.
8F#\J 8A 8B 8d#	8bb'\	.
8BBB/L 8BB	8dd#'\	.
8F#\J 8A 8B 8d#	8bb'\J	.
=42	=42	=42
8E\ 8G# 8B 8e	8g#\ 8b 8ee	.
8r	8r	.
8EE/ 8E	8ee\ 8gg# 8bb 8eee	.
8r	8r	.
4r	4r	.
=43!|:	=43!|:	=43!|:
*k[]	*k[]	*
8CC/L 8C	8cc'\ 8ee	p
8G\J 8c 8e	4cc'\ 4ee	.
8G\L 8c 8e	.	.
8G\ 8c 8e	(16dd#X\LL	.
.	16ee\JJ)	.
8G\ 8c 8e	(16ff\LL	.
.	16ee\	.
8G\J 8c 8e	16dd#\	.
.	16cc\JJ)	.
=44	=44	=44
8GGG/L 8GG	8.B'\L 8.b	.
8G\J 8B 8d 8f	.	.
.	16a'\Jk 16aa	.
8G\L 8B 8d 8f	2g\ 2gg	.
8G\J 8B 8d 8f	.	.
8GGG/L 8GG	.	.
8G\J 8B 8d 8f	.	.
!!LO:LB:g=original	!	!
=45	=45	=45
8GGG/L 8GG	8dd'\ 8ff	.
8G\J 8B 8d 8f	4dd'\ 4ff	.
8G\L 8B 8d 8f	.	.
8G\ 8B 8d 8f	(16ee\LL	.
.	16ff\JJ)	.
8G\ 8B 8d 8f	(16gg\LL	.
.	16ff\	.
8G\J 8B 8d 8f	16ee\	.
.	16dd\JJ)	.
=46	=46	=46
8CC/L 8C	8.c'\L 8.cc	.
8G\J 8c 8e	.	.
.	16cc'\Jk 16ccc	.
8G\L 8c 8e	2g\ 2gg	.
8G\J 8c 8e	.	.
8CC/L 8C	.	.
8G\J 8c 8e	.	.
=47	=47	=47
8CC/L 8C	8cc\ 8ee	.
8G\J 8c 8e	4cc\ 4ee	.
8G\L 8c 8e	.	.
8G\ 8c 8e	(16dd#X\LL	.
.	16ee\JJ)	.
8G\ 8c 8e	(16ff\LL	.
.	16ee\	.
8G\J 8c 8e	16dd#\	.
.	16cc\JJ)	.
=48	=48	=48
!LO:TX:a:t=P:problem:mixed beam	!	!
.	(>8qee/	.
8FF/L 8F	16dd\LL)	.
.	16cc#X\	.
8F\J 8A 8d	16dd'\	.
.	16ee'\JJ	.
!LO:TX:a:t=P:problem:mixed beam	!	!
.	(>8qgg/	.
8FF/L 8F	16ff\LL)	.
.	16ee\	.
8F\J 8A 8d	16ff'\	.
.	16gg'\JJ	.
!LO:TX:a:t=P:problem:mixed beam	!	!
8FF/L 8F	16aa'\LL	.
.	16ee'\	.
8F\J 8A 8d	16ff'\	.
.	16dd'\JJ	.
=49	=49	=49
8GG\L 8G	8cc'\L	.
8G\J 8c 8e	(16b\L	.
.	16cc\JJ)	.
8G\L 8c 8e	8.aa'\L	.
8G\ 8c 8e	.	.
.	16gg'\Jk	.
8G\ 8B 8d 8f	(16gg\LL	.
.	16ff\	.
8G\J 8B 8d 8f	16dd\	.
.	16b\JJ)	.
=50	=50	=50
8r	4f\ 4g 4b 4dd	.
!LO:TX:b:t=P&colon;D&colon;C&colon; al	!	!
8GG\L 8G	.	.
8C\J 8c	8e\ 8g 8cc	.
8r	8r	.
!	!LO:TX:b:t=Fine	!
4r	4r	.
==	==	==
*-	*-	*-
!!!system-decoration: {(s1,s2)}
!!!RDF**kern: > = above
!!!RDF**kern: < = below
!!!ENC: Berenika Jozajtis
!!!END: 2022-07-19
!!!ENC: Jan Barakat
!!!END: 2022-08-14
